symbolic/48x48/apps/Nvidiux.svg

<svg xmlns="http://www.w3.org/2000/svg" width="48" height="48" version="1">
 <rect style="opacity:0.2" width="40" height="40" x="4" y="5" rx="2" ry="2"/>
 <rect style="fill:#e54031" width="40" height="40" x="4" y="4" rx="2" ry="2"/>
 <path style="opacity:0.2" d="M 38.5,15.000406 18.370484,35.702943 15.449654,27.709092 Z"/>
 <path style="opacity:0.4" d="M 18 7 C 12.932538 7.0123892 8.0110201 8.6979816 4 11.794922 L 4 13.125 C 7.3069987 11.08585 11.114854 10.004073 15 10 C 20.833461 10.007331 26.184303 12.428178 30.029297 16.386719 L 34.441406 13.953125 C 30.240644 9.6447418 24.390318 7.0076518 18 7 z M 37.505859 17.890625 L 33.796875 21.707031 C 34.547722 23.228417 35.131238 24.854704 35.501953 26.574219 L 40.662109 26.234375 C 40.157036 23.191059 39.051841 20.38203 37.505859 17.890625 z M 40.910156 28.224609 L 35.832031 28.556641 C 35.935053 29.363252 35.991137 30.175166 36 30.988281 L 40.972656 30.964844 C 40.988519 30.643459 40.997636 30.321771 41 30 C 40.9929 29.407266 40.962966 28.815027 40.910156 28.224609 z M 40.783203 32.964844 L 35.896484 32.988281 C 35.818514 33.78307 35.695264 34.572765 35.527344 35.353516 L 40.279297 35.666016 C 40.500948 34.776472 40.669217 33.874472 40.783203 32.964844 z M 35.007812 37.324219 C 34.720762 38.206116 34.375605 39.06803 33.974609 39.904297 L 38.119141 41.058594 C 38.729573 39.959717 39.24889 38.812646 39.671875 37.628906 L 35.007812 37.324219 z"/>
 <path style="fill:#b2bfd9" d="M 38.5,14 18.370484,34.702537 15.449654,26.708686 Z"/>
 <circle style="opacity:0.2" cx="17" cy="31" r="7"/>
 <circle style="fill:#f4f4f7" cx="17" cy="30" r="7"/>
 <path style="fill:#f4f4f7;opacity:0.2" d="M 6 4 C 4.892 4 4 4.892 4 6 L 4 7 C 4 5.892 4.892 5 6 5 L 42 5 C 43.108 5 44 5.892 44 7 L 44 6 C 44 4.892 43.108 4 42 4 L 6 4 z"/>
</svg>

<svg xmlns="http://www.w3.org/2000/svg" width="48" height="48" version="1"><rect style="opacity:.2" width="40" height="40" x="4" y="5" rx="2" ry="2"/><rect style="fill:#e54031" width="40" height="40" x="4" y="4" rx="2" ry="2"/><path style="opacity:.2" d="M38.5 15 18.37 35.703l-2.92-7.994z"/><path style="opacity:.4" d="M18 7a23 23 0 0 0-14 4.795v1.33A21 21 0 0 1 15 10c5.833.007 11.184 2.428 15.03 6.387l4.411-2.434A22.964 22.964 0 0 0 18 7zm19.506 10.89-3.71 3.817a20.975 20.975 0 0 1 1.706 4.867l5.16-.34a22.91 22.91 0 0 0-3.156-8.343zm3.404 10.335-5.078.332A21 21 0 0 1 36 30.988l4.973-.023A23 23 0 0 0 41 30a23.024 23.024 0 0 0-.09-1.775zm-.127 4.74-4.887.023a21 21 0 0 1-.369 2.366l4.752.312a23 23 0 0 0 .504-2.701zm-5.775 4.36a21 21 0 0 1-1.033 2.58l4.144 1.154a23 23 0 0 0 1.553-3.43l-4.664-.305z"/><path style="fill:#b2bfd9" d="M38.5 14 18.37 34.703l-2.92-7.994z"/><circle style="opacity:.2" cx="17" cy="31" r="7"/><circle style="fill:#f4f4f7" cx="17" cy="30" r="7"/><path style="fill:#f4f4f7;opacity:.2" d="M6 4c-1.108 0-2 .892-2 2v1c0-1.108.892-2 2-2h36c1.108 0 2 .892 2 2V6c0-1.108-.892-2-2-2H6z"/></svg>
